icons/spam-3-line.svg

<svg viewBox="0 0 24 24" fill="currentColor" xmlns="http://www.w3.org/2000/svg">
    <path d="M15.936 2.50098L21.501 8.06595V15.936L15.936 21.501H8.06595L2.50098 15.936V8.06595L8.06595 2.50098H15.936ZM15.1076 4.50098H8.89437L4.50098 8.89437V15.1076L8.89437 19.501H15.1076L19.501 15.1076V8.89437L15.1076 4.50098ZM8.00024 11.0002H16.0002V13.0002H8.00024V11.0002Z"/>
</svg>

<svg xmlns="http://www.w3.org/2000/svg" viewBox="0 0 24 24">
    <g>
        <path fill="none" d="M0 0h24v24H0z"/>
        <path fill-rule="nonzero" d="M15.936 2.5L21.5 8.067v7.87L15.936 21.5h-7.87L2.5 15.936v-7.87L8.066 2.5h7.87zm-.829 2H8.894L4.501 8.895v6.213l4.393 4.394h6.213l4.394-4.394V8.894l-4.394-4.393zM8 11h8v2H8v-2z"/>
    </g>
</svg>
